packages/core/src/svgs/kuma.svg

<svg width="24" height="24" viewBox="0 0 24 24" fill="none" xmlns="http://www.w3.org/2000/svg">
<g clip-path="url(#clip0_31_12872)">
<path d="M0 0H24V24H0V0Z" fill="#D4E8FF"/>
<path d="M16.4312 17.1513C15.6598 18.6299 9.74979 17.6527 7.13979 17.1299C5.84551 17.5799 6.50979 18.407 7.96265 18.7927C10.0455 19.3499 15.1841 19.6627 17.0312 18.4585C17.8884 17.9099 17.2369 17.3099 16.4312 17.1513Z" fill="#94A3B2"/>
<path d="M7.14004 17.1299C7.75719 17.9099 7.85576 18.2999 9.1029 18.6299C11.2715 19.2213 11.6058 18.2999 11.91 18.137C12.3558 18.6084 12.7243 19.1227 14.1643 18.7499C14.9358 18.5441 14.3358 18.4499 15.3815 18.4284C16.0243 18.4156 16.1615 18.3727 16.5643 18.1284C16.6715 17.6227 16.6929 17.5584 16.4358 17.1513C16.4229 17.1299 16.3929 17.087 16.38 17.1084C16.3672 17.1299 16.3372 17.0741 16.3243 17.0656L16.1615 16.9156C15.7072 16.2899 16.3758 16.0884 17.0829 14.3399C17.2886 13.8127 17.4215 13.2256 17.6572 12.7627C17.94 12.2056 18.0815 11.8713 17.9529 10.967C17.7472 9.55272 17.94 8.48986 17.0315 7.58986C16.3586 6.92129 16.7486 6.87843 16.4229 6.04272C15.36 3.35986 14.5243 5.51557 13.1486 5.837C11.8029 6.14986 12.18 6.22272 11.2629 6.33415C10.6972 6.39843 10.7615 6.53557 10.3629 6.62129C9.67719 6.76272 9.93433 6.46272 8.21147 6.857C7.82147 8.54129 8.5029 9.047 8.70004 9.59557C8.9829 10.4099 8.33147 10.8513 9.4029 12.437L8.55861 13.5341C8.22433 13.8127 8.65719 13.6713 8.10433 13.727C7.92004 13.0413 6.97719 12.9213 6.51861 13.007C5.20719 13.2641 4.53433 15.1327 5.87147 15.9384C7.07147 16.667 6.75861 15.6599 7.14004 17.1299Z" fill="#131314"/>
<path d="M9.51429 12.0084C9.65572 11.8927 11.1857 9.16699 11.2286 9.05128L11.2071 8.70413C11.9529 8.72556 11.9229 7.24699 13.7357 8.43413C13.7529 8.44699 13.7871 8.43413 13.7957 8.45556C13.8086 8.47699 13.8514 8.47699 13.8643 8.47699C14.4814 8.5327 14.7514 8.2327 15.6214 8.64842C16.3243 8.9827 16.5514 9.17556 17.4943 9.18842C17.0657 7.55556 16.6714 7.9027 16.4014 7.31985C16.1186 6.70699 16.14 4.94985 15.2057 5.04842C14.9272 5.07842 14.3186 5.52842 14.1 5.67842C13.2429 6.29128 13.1914 5.93556 12.3643 6.32128C11.8114 6.57842 12.1071 6.4927 11.4129 6.57842C10.9114 6.6427 10.8814 6.7627 10.5214 6.85699C10.2086 6.9427 9.77572 6.89985 9.40715 6.92128C8.31001 6.97699 8.53715 7.14842 8.47286 7.23413C8.01858 7.80413 8.88429 9.1027 9.02572 9.47556C9.30858 10.1956 8.76858 11.0098 9.51429 12.0084Z" fill="#F9AE5F"/>
<path d="M11.2286 9.0384C11.0443 9.5184 10.5558 9.5184 10.2429 10.4527C9.78432 11.7941 9.52289 10.9455 9.50146 11.9955C9.84004 12.6941 10.7058 13.4141 11.5415 13.7484C12.54 14.147 13.7529 14.0141 14.73 13.7055C16.7443 13.0713 17.8415 11.7341 17.4943 9.1884C16.5515 9.17554 16.3243 8.98269 15.6215 8.6484C14.7429 8.23269 14.4815 8.51983 13.8643 8.47697C13.8515 8.47697 13.8086 8.48983 13.7957 8.45554C13.7872 8.43412 13.7529 8.44697 13.7315 8.43412L12.9943 8.14697C13.0072 8.1984 12.8229 9.58269 11.3658 8.85412C11.2072 8.99554 11.2586 8.6484 11.2286 9.0384Z" fill="#FEFEFE"/>
<path d="M9.47125 18.4498C10.0327 17.9012 9.98125 18.2655 10.2598 17.2584L9.79697 17.2026C9.78411 17.1726 9.75411 17.1726 9.74125 17.1512C10.1098 16.8598 10.1527 17.0655 10.577 16.9369C11.2713 15.1326 9.89125 15.3255 9.53554 14.7684C10.7613 14.6484 11.1941 15.8312 10.8684 16.9369C11.0827 17.2369 11.1513 17.0655 11.4684 17.3741C11.8241 17.7169 11.5113 17.6526 11.9527 17.9012C11.9655 17.3012 11.7684 16.4312 12.0298 15.9598C12.1498 16.1098 12.0855 15.9469 12.1498 16.2041C12.1798 16.3455 12.1798 16.3669 12.1927 16.5041C12.2141 16.8726 12.0727 17.6098 12.2784 17.9441C12.257 17.0226 13.007 17.2669 13.9798 16.8384L13.9284 16.0884C14.0913 15.9469 13.7313 15.8826 14.2541 16.0326C14.417 15.4326 14.2755 15.4241 14.1555 14.8541C11.9227 15.0684 10.5213 14.7126 9.77554 12.7412C9.4584 12.9212 9.32983 13.1784 9.05983 13.4698C8.89697 13.6412 8.41697 14.0484 8.35268 14.1684C7.81268 15.0041 8.47268 14.9055 7.30268 15.7669C7.18268 17.3098 8.18983 18.1155 9.47125 18.4498Z" fill="#F9AE5F"/>
<path d="M11.2288 9.03854C11.2588 8.65283 11.2074 8.98283 11.3702 8.86712C11.9316 9.57426 11.7131 9.23997 12.4202 9.63854C11.9531 10.83 11.3488 10.26 10.8902 10.2514C10.9245 11.0743 11.2931 11.13 11.7688 11.5714C11.6188 12.2143 11.7816 12.7714 12.5402 12.72C13.2131 12.6643 13.4831 12.2143 13.7231 11.7514C14.0488 11.1171 14.4388 11.3228 14.8074 10.6885C15.0988 10.1957 15.2188 9.36854 14.7302 8.93997C14.0702 9.15426 14.2845 10.0457 12.9859 9.66854L12.6474 9.51854C12.7245 9.21854 13.1788 9.15426 12.9945 8.15569L13.7316 8.44712C13.4959 8.25426 13.6031 8.32712 13.5045 8.14712C13.8431 7.67569 14.0145 7.84712 14.3188 7.6114C13.7959 7.35426 13.5388 7.7614 13.2216 8.00569C11.8759 7.52569 11.8674 8.26283 10.9674 8.49854C10.5559 8.60569 10.5774 8.49854 10.3931 8.95283L11.2074 8.72569L11.2288 9.03854Z" fill="#020202"/>
<path d="M14.1001 14.8415C14.2201 15.4115 14.3401 15.3901 14.1772 15.9986L14.1858 17.3443C15.2487 17.0658 16.693 15.0258 16.9972 13.5986C16.153 14.0615 16.1744 14.4686 14.1001 14.8415Z" fill="#FEFEFE"/>
<path d="M6.08561 15.0256C6.60847 15.0556 6.19276 15.0256 6.51847 15.2913C7.65847 16.2599 9.02561 13.2428 6.82276 13.2856C5.2799 13.3285 4.83847 15.4885 6.56561 15.9042C7.16133 16.0456 6.87847 15.947 6.99418 15.8613C6.45418 15.5185 6.22704 15.7328 6.08561 15.0256Z" fill="#F9AE5F"/>
<path d="M10.4443 13.513C11.2158 14.8758 14.0872 14.9915 16.0415 13.9415C16.8343 13.513 17.8758 12.4501 17.6786 11.3315C17.8843 12.103 15.5872 14.563 12.4629 14.2458C11.4772 14.1344 11.1386 13.7787 10.4486 13.513H10.4443Z" fill="#BC262D"/>
<path d="M12.27 17.9315L12.3343 18.3729C12.8229 18.5658 13.9372 18.7158 14.4172 18.3301C14.7514 17.6229 13.8729 17.5458 13.4486 17.2586C13.5257 17.1944 13.4272 17.0958 13.95 17.1729L13.9714 16.8301C13.2 16.9244 13.2429 17.1729 12.1929 17.0658L12.27 17.9315Z" fill="#FEFEFE"/>
<path d="M12.8658 10.5169C12.4972 10.5941 12.5615 10.6155 12.3986 10.9798C12.27 11.2669 12.2272 11.3226 12.1072 11.5498C11.37 12.8698 13.5815 13.1569 13.8515 10.3155C12.4758 10.1312 13.4829 11.6226 12.4972 12.0641C12.4843 11.9355 12.7972 10.9369 12.8658 10.5212V10.5169Z" fill="#F58B8C"/>
<path d="M9.24414 18.407C9.707 18.4928 10.6627 18.6428 11.1299 18.4285C12.0084 18.0213 11.4427 17.1856 10.0884 17.2713C9.80557 18.2785 9.80557 17.8585 9.24414 18.407ZM14.837 18.1499C15.3813 18.1928 15.9084 18.1585 16.337 17.987C16.4013 17.5028 16.4441 17.5028 16.0756 17.2242C15.5184 16.7956 15.8613 17.0013 15.6084 16.6113C15.3236 16.9777 14.9662 17.2812 14.5584 17.5028L14.837 18.1456V18.1499Z" fill="#FDFDFD"/>
<path d="M15.5999 5.24991C14.8714 5.08705 14.2842 5.81562 14.0914 6.21419C14.4042 6.47134 14.4771 6.29991 15.1756 6.74991C15.8699 7.19991 15.8271 7.34991 16.2385 7.37134C16.2171 6.57848 15.8699 5.82848 15.5956 5.24991H15.5999ZM8.62278 7.23419C8.60136 7.26419 8.42993 7.19134 8.50278 7.81277L9.20993 9.48419C9.49278 9.20991 9.52278 8.73419 9.66421 8.36991C9.8485 7.89848 10.0671 7.65419 10.2514 7.38419C9.86993 7.09277 9.02564 7.04991 8.62278 7.23419Z" fill="#0B0906"/>
<path d="M14.5244 6.09424C15.0216 6.41996 15.4887 6.62139 15.8787 6.89996C15.8787 6.38567 15.5787 5.79424 15.4244 5.42139C15.2314 5.45297 15.0488 5.53061 14.8921 5.64774C14.7355 5.76486 14.6093 5.91802 14.5244 6.09424ZM9.16728 8.95282L9.74157 7.46139L8.75585 7.36282C8.74162 7.91951 8.88419 8.46898 9.16728 8.94853V8.95282Z" fill="#FAD995"/>
<path d="M10.6201 7.81264C10.813 8.31836 11.3487 8.24122 11.4344 7.73979C11.2287 7.58979 10.7187 7.43979 10.6201 7.81264Z" fill="#FDFDFD"/>
<path d="M12.8014 7.47001C13.2557 7.51287 13.4828 7.40572 13.5043 6.97715C13.0928 6.76287 12.7328 6.90001 12.8014 7.47001Z" fill="#FBFDFB"/>
</g>
<defs>
<clipPath id="clip0_31_12872">
<rect width="24" height="24" fill="white"/>
</clipPath>
</defs>
</svg>

<svg xmlns="http://www.w3.org/2000/svg" width="24" height="24" fill="none" viewBox="0 0 24 24"><g clip-path="url(#a)"><path fill="#D4E8FF" d="M0 0h24v24H0z"/><path fill="#94A3B2" d="M16.431 17.151c-.771 1.479-6.681.502-9.291-.021-1.294.45-.63 1.277.823 1.663 2.083.557 7.221.87 9.068-.334.857-.55.206-1.15-.6-1.308"/><path fill="#131314" d="M7.14 17.13c.617.78.716 1.17 1.963 1.5 2.169.591 2.503-.33 2.807-.493.446.471.814.986 2.254.613.772-.206.172-.3 1.218-.322.642-.012.78-.055 1.182-.3.108-.505.129-.57-.128-.977-.013-.021-.043-.064-.056-.043s-.043-.034-.056-.042l-.163-.15c-.454-.626.215-.828.922-2.576.206-.527.339-1.114.574-1.577.283-.557.424-.892.296-1.796-.206-1.414-.013-2.477-.921-3.377-.673-.669-.283-.712-.61-1.547-1.062-2.683-1.898-.527-3.273-.206-1.346.313-.969.386-1.886.497-.566.064-.502.202-.9.287-.686.142-.429-.158-2.152.236-.39 1.684.292 2.19.489 2.739.283.814-.369 1.255.703 2.841l-.844 1.097c-.335.279.098.137-.455.193-.184-.686-1.127-.806-1.585-.72-1.312.257-1.985 2.126-.648 2.931 1.2.729.888-.278 1.269 1.192"/><path fill="#F9AE5F" d="M9.514 12.008c.142-.115 1.672-2.841 1.715-2.957l-.022-.347c.746.022.716-1.457 2.529-.27.017.013.051 0 .06.022.013.021.055.021.068.021.617.056.887-.244 1.757.171.703.335.93.528 1.873.54-.428-1.632-.823-1.285-1.093-1.868-.282-.613-.261-2.37-1.195-2.272-.279.03-.887.48-1.106.63-.857.613-.909.258-1.736.643-.553.257-.257.172-.951.257-.502.065-.532.185-.892.279-.312.086-.745.043-1.114.064-1.097.056-.87.227-.934.313-.454.57.411 1.869.553 2.242.283.72-.257 1.534.488 2.532"/><path fill="#FEFEFE" d="M11.229 9.038c-.185.48-.673.48-.986 1.415-.459 1.341-.72.492-.742 1.543.339.698 1.205 1.418 2.04 1.752.999.399 2.212.266 3.189-.042 2.014-.635 3.111-1.972 2.764-4.518-.942-.012-1.17-.205-1.873-.54-.878-.415-1.14-.128-1.757-.171-.013 0-.055.013-.068-.021-.009-.022-.043-.009-.064-.022l-.738-.287c.013.051-.171 1.436-1.628.707-.159.142-.107-.206-.137.184"/><path fill="#F9AE5F" d="M9.471 18.45c.562-.549.51-.184.789-1.192l-.463-.055c-.013-.03-.043-.03-.056-.052.369-.291.412-.085.836-.214.694-1.804-.686-1.612-1.041-2.169 1.225-.12 1.658 1.063 1.332 2.169.215.3.283.128.6.437.356.343.043.279.485.527.013-.6-.185-1.47.077-1.941.12.15.056-.013.12.244.03.142.03.163.043.3.021.369-.12 1.106.085 1.44-.021-.921.729-.677 1.702-1.106l-.052-.75c.163-.141-.197-.205.326-.055.163-.6.021-.609-.098-1.179-2.233.214-3.635-.141-4.38-2.113-.318.18-.446.437-.716.729-.163.171-.643.578-.707.698-.54.836.12.738-1.05 1.599-.12 1.543.887 2.349 2.168 2.683"/><path fill="#020202" d="M11.229 9.039c.03-.386-.022-.056.141-.172.562.707.343.373 1.05.772-.467 1.191-1.071.621-1.53.612.034.823.403.879.879 1.32-.15.643.013 1.2.771 1.149.673-.056.943-.506 1.183-.969.326-.634.716-.428 1.084-1.062.292-.493.412-1.32-.077-1.749-.66.214-.446 1.106-1.744.729l-.339-.15c.078-.3.532-.365.348-1.363l.737.291c-.236-.193-.129-.12-.227-.3.338-.471.51-.3.814-.536-.523-.257-.78.15-1.097.395-1.346-.48-1.355.257-2.255.493-.411.107-.39 0-.574.454l.814-.227z"/><path fill="#FEFEFE" d="M14.1 14.842c.12.57.24.548.077 1.157l.009 1.345c1.063-.278 2.507-2.318 2.811-3.745-.844.463-.823.87-2.897 1.242"/><path fill="#F9AE5F" d="M6.086 15.026c.522.03.107 0 .432.265 1.14.969 2.508-2.048.305-2.005-1.543.043-1.985 2.203-.257 2.618.595.142.312.043.428-.043-.54-.343-.767-.128-.908-.835"/><path fill="#BC262D" d="M10.444 13.513c.772 1.363 3.643 1.479 5.597.428.793-.428 1.835-1.49 1.638-2.61.205.772-2.092 3.232-5.216 2.915-.986-.112-1.324-.467-2.014-.733z"/><path fill="#FEFEFE" d="m12.27 17.932.064.44c.489.194 1.603.344 2.083-.042.334-.707-.544-.784-.968-1.071.077-.065-.022-.163.501-.086l.021-.343c-.771.094-.728.343-1.778.236z"/><path fill="#F58B8C" d="M12.866 10.517c-.369.077-.304.099-.467.463-.129.287-.172.343-.292.57-.737 1.32 1.475 1.607 1.745-1.235-1.376-.184-.37 1.308-1.355 1.75-.013-.13.3-1.128.369-1.544z"/><path fill="#FDFDFD" d="M9.244 18.407c.463.086 1.419.236 1.886.021.878-.407.313-1.242-1.042-1.157-.282 1.008-.282.587-.844 1.136m5.593-.257c.544.043 1.071.009 1.5-.163.064-.484.107-.484-.261-.763-.558-.428-.215-.223-.468-.613-.284.367-.642.67-1.05.892l.279.643z"/><path fill="#0B0906" d="M15.6 5.25c-.729-.163-1.316.566-1.509.964.313.257.386.086 1.085.536.694.45.651.6 1.062.621-.02-.793-.368-1.543-.642-2.121zM8.623 7.234c-.022.03-.193-.043-.12.579l.707 1.671c.283-.274.313-.75.454-1.114.184-.472.403-.716.587-.986-.381-.291-1.225-.334-1.628-.15"/><path fill="#FAD995" d="M14.524 6.094c.498.326.965.527 1.355.806 0-.514-.3-1.106-.455-1.479a1.22 1.22 0 0 0-.9.673M9.167 8.953l.575-1.492-.986-.098a2.97 2.97 0 0 0 .411 1.586z"/><path fill="#FDFDFD" d="M10.62 7.813c.193.505.729.428.814-.073-.205-.15-.715-.3-.814.073"/><path fill="#FBFDFB" d="M12.801 7.47c.455.043.682-.064.703-.493-.411-.214-.771-.077-.703.493"/></g><defs><clipPath id="a"><path fill="#fff" d="M0 0h24v24H0z"/></clipPath></defs></svg>
